X: 32108
T: Pet Of The Pipers
R: jig
M: 6/8
K: Gmajor
|:GFG BAG|dBG gdB|GFG BAG|FED cBA|
GFG BAG|dBG gfg|efg dBG|cAF G3:|
|:gfg efg|eag fed|gfg efg|agf g2d|
gfe dcB|edc BAG|efg dBG|cAF G3:|

